X:1
T:24 Arie Antiche
T:Pur dicesti o bocca bella
T:Pur dicesti, o bocca bella
T:Antonio Lotti (1667-1740) Alessandro Parisotti (1853-1913)
T:(24 Arie Antiche) Arietta
T:Low voices
T:Creative Commons copyright waiver (CC0 1.0 Universal)
T:Creative Commons copyright waiver (CC0 1.0 Universal)
T:Creative Commons copyright waiver (CC0 1.0 Universal)
T:Creative Commons copyright waiver (CC0 1.0 Universal)
T:Creative Commons copyright waiver (CC0 1.0 Universal)
T:Creative Commons copyright waiver (CC0 1.0 Universal)
T:Creative Commons copyright waiver (CC0 1.0 Universal)
T:Creative Commons copyright waiver (CC0 1.0 Universal)
C:Antonio Lotti (1667-1740)
Z:Creative Commons copyright waiver (CC0 1.0 Universal)
%%score ( 1 2 ) ( 3 4 ) { ( 5 8 ) | ( 6 7 ) }
L:1/8
Q:1/4=69
M:2/4
K:C
V:1 treble nm="Voice"
V:2 treble 
V:3 treble nm="Voice"
V:4 treble 
V:5 treble nm="Piano"
V:8 treble 
V:6 bass 
V:7 bass 
V:1
"^Allegretto grazioso" z4 | z4 | z4 | z4 | z4 | z4 | z4 | z4 | z4 | z4 | z4 | z4 | z4 | z4 | z4 | %15
w: |||||||||||||||
 z4 | z4 ||SS z4 | z4 | z4 | z4 | z4 |!p!!>(! (G<F)!>)! E2 | x4 | x4 |[Q:1/4=90] ^F2 (TG{AG}F/G/) | %26
w: |||||||bel- * la,|||ca- ro * *|
 D2 z2 | z4 |[Q:1/4=86] z4 | z4[Q:1/4=84] | z4 |[Q:1/4=80] z4 | %32
w: si,||||||
[Q:1/4=80]"_rit."[Q:1/4=70] D2[Q:1/4=66] (T^F{GF}E/F/) | G4 |[Q:1/4=98]"_a tempo" x4 | x4 | x4 | %37
w: mio pia- * *|cer.||||
 x4 |!p! (E>D)[Q:1/4=94] D3/2 x/ |[Q:1/4=102] z4 | z4 |[Q:1/4=86]"_rit."[Q:1/4=88] z4 | %42
w: |ce- * sti,||||
[Q:1/4=76] z4 |[Q:1/4=70] z4 | z4 | z4 | z4 | z4[Q:1/4=76] | z4 | z4[Q:1/4=70] | z4 | %51
w: |||||||||
[Q:1/4=76] z4 | z4 | z4 |[Q:1/4=66] z4 |[Q:1/4=70] z4 |[Q:1/4=66] z4 |[K:treble][Q:1/4=60] x4 | %58
w: |||||||
 x4 | x4 | (G{AG}^F/G/ c) G | (F{GF}E/F/ c) F | (E{FE}D/E/ c) E | D z G z |[Q:1/4=80] x4 | x4 | %66
w: ||quel _ _ _ so-|a- * * * vee|ca- * * * ro|si, si,|||
 x4[Q:1/4=74] | (d2- (3dec |[Q:1/4=66] (3BcA (3GAF |[Q:1/4=60] (3EDE (3FEF | %70
w: |cer, _ _ _|_ _ _ _ _ _||
[Q:1/4=54] (3G^F[Q:1/4=48]G .c) !fermata!z/[Q:1/4=44] =F/ | E>D (TG2{^FG)} | C4[Q:1/4=60] | %73
w: * * * * il|mi- o pia-|cer.|
[Q:1/4=94] x4 |[Q:1/4=98] x4 | z4[Q:1/4=92] | z4[Q:1/4=88] | z4 | z4 |[Q:1/4=82] z4 | z4!fine! || %81
w: ||||||||
[Q:1/4=94] z4 | z4 | z4 | z4 |[Q:1/4=80] z4 |[Q:1/4=76] z4 | z4[Q:1/4=72] | (B A3) | x4 | %90
w: |||||||pri, _||
[Q:1/4=78] x4 | (!>!dc/) z/ (!>!cB/) z/ | (!>!B2 A2) |[Q:1/4=84] x4 | x4 | z4[Q:1/4=66]"_rit." | %96
w: |mor * t'a- *|pri, _||||
[Q:1/4=60] z4[Q:1/4=98]"_a tempo" | z4 | z4[Q:1/4=90] | z4 | z4 |[Q:1/4=80]"_riten." z4 | %102
w: ||||||
[Q:1/4=60] (D2 d3/2) G/ |[Q:1/4=90]"_rall." A2 (T^F2{EF)} | G4 ||[Q:1/4=102]"_Tempo I°" x4 | x4 | %107
w:   si, _|del go-|der.|||
 x4 | x4 | x4 | z4!D.S.! || %111
w: ||||
V:2
 x4 | x4 | x4 | x4 | x4 | x4 | x4 | x4 | x4 | x4 | x4 | x4 | x4 | x4 | x4 | x4 | x4 || x4 | x4 | %19
 x4 | x4 | x4 | x4 | x4 | x4 | x4 | x4 | x4 | x4 | x4 | x4 | x4 | x4 | x4 | x4 | x4 | x4 | x4 | %38
 x4 | x4 | x4 | x4 | x4 | x4 | x4 | x4 | x4 | x4 | x4 | x4 | x4 | x4 | x4 | x4 | x4 | x4 | x4 | %57
[K:treble] x4 | x4 | x4 | x4 | x4 | x4 | x4 | x4 | x4 | x4 | x4 | x4 | x4 | x4 | x4 | x4 | x4 | %74
 x4 | x4 | x4 | x4 | x4 | x4 | x4 || x4 | x4 | x4 | x4 | x4 | x4 | x4 | x4 | x4 | x4 | x4 | x4 | %93
 x4 | x4 | x4 | x4 | x4 | x4 | x4 | x4 | x4 | x2 (d>G) | x4 | x4 || x4 | x4 | x4 | x4 | x4 | x4 || %111
V:3
 z4 | z4 | z4 | z4 | z4 | z4 | z4 | z4 | z4 | z4 | z4 | z4 | z4 | z4 | z4 | z4 | z4 || %17
w: |||||||||||||||||
!p!"^Voice" G2 (E>F) | G2 C3/2 G/ |!<(! A3/2 B/ c3/2!<)! G/ |!>(! F2 E3/2!>)! G/ | %21
w: Pur di- *|ce- sti, o|boc- ca, boc- ca|bel- la, o|
!<(! A3/2 B/ c3/2!<)! G/ |!>(! F2!>)! E2 |!>(! !>!A3 B | !>!G3 A | ^F2!>)! G2 | D2 z2 | A2 z2 | %28
w: boc- ca, boc- ca|bel- la,|quel so-|a- vee|ca- ro|si,|si,|
 !>!c2 (BA) | (B^F) G c |!>(! B2{AB} A2 | G2!>)! z A | D2 ^F2 | G4 | z4 | z4 | z4 |!p! G2 (F>E) | %38
w: che fa _|tut- * to il|mio pia-|cer, il|mio pia-|cer.||||Pur di- *|
 D2 D3/2 D/ |"^cresc." G3/2 A/ F3/2 E/ | E2 D3/2!pp! D/ |"^con grazia" !>!G3/2 A/ F3/2 E/ | %42
w: ce- sti, o|boc- ca, boc- ca|bel- la, o|boc- ca, boc- ca|
 !>!E2 D2 |!f! (G2 c3/2) G/ |!>(! (F2 c3/2) F/ | (E2 c3/2) E/!>)! | D z!f! G z | %47
w: bel- la,|quel * so-|a- * vee|ca- * ro|si, si,|
!pp!"^con grazia" (G !>!c2) G | (F !>!c2) F | (E !>!c2) E |"^portando" (D4 | (G2) E) C | %52
w: quel _ so-|a- * vee|ca- * ro|si,|che _ fa|
 (!>!A>G) F3/2 E/ |!<(! F3 F!<)! |!mf! d3 c | B3/2 A/ (G>F) |{EF} (3(EFE{FG} (3FGF | %57
w: tut- * to il|mio pia-|cer, il|mi- o pia- *|cer, _ _ _ _ _|
{GA} (3GAG .c) !fermata!z/!pp! F/ | E2 (D2{EDCD)} | C4 | (G2 c3/2) G/ | (F2 c3/2) F/ | %62
w: _ _ _ _ il|mio pia-|cer,|quel _ so-|a- * vee|
 (E2 c3/2) E/ | D2 G2 |"^cresc." (G2 E) C | (A>G) F3/2 E/ | F3 F |!f! d3 c | B3/2 A/"^dim." (G>F) | %69
w: ca- * ro|si, si,|che * fa|tut- * to il|mio pia-|cer, il|mi- o pia- *|
 (3(EFE (3FGF | (3GAG .c) !fermata!z/!p! F/ | E2{/E} (TD2{CD)} | C4 | z4 | z4 | z4 | z4 | z4 | z4 | %79
w: cer, _ _ _ _ _|_ _ _ _ il|mio pia-|cer.|||||||
 z4 | z4 ||!mf! E2 (D>C) | G3 G | !>!c2 !>!B2 | B2 A2 |!f!!<(! (A>B) (^F>G) | A3!<)! B | %87
w: ||Per o- *|nor di|sua fa-|cel- la|con _ un _|bac- cioA-|
!>(!{cd} !>!c2 B2!>)! | A4 |!pp! (A>B) (^F>G) |!<(! A3 B!<)! |!>(! !>!c2 B2!>)! | A4 | %93
w: mor t'a-|pri,|con * un *|bac- cioA-|mor t'a-|pri,|
!mf! (A>G) (^F>E) | D2 (d>G) | A2 (!tenuto!^F2{GFEF)} | G3!pp! (G | (3ABA (3BcB | c3) (B | %99
w: dol- * ce *|fon- te _|del go-|der, ah!|_ _ _ _ _ _|* ah!|
 (3ABA (3GAG | ^F3) (G | (3^FGF (3EFE | D2)!f! d3/2 G/ | A2 ^F2 | G4 || z4 | z4 | z4 | z4 | z4 | %110
w: _ _ _ _ _ _|* ah!|_ _ _ _ _ _|* si, _|del go-|der.||||||
"^" z4 || %111
w: |
V:4
 x4 | x4 | x4 | x4 | x4 | x4 | x4 | x4 | x4 | x4 | x4 | x4 | x4 | x4 | x4 | x4 | x4 || x4 | x4 | %19
 x4 | x4 | x4 | x4 | x4 | x4 | x4 | x4 | x4 | x4 | x2 (Gc) | x4 | x4 | x4 | x4 | x4 | x4 | x4 | %37
 x4 | x4 | x4 | x4 | x4 | x4 | x4 | x4 | x4 | x4 | x4 | x4 | x4 | x4 | x4 | x2 (F>E) | x4 | x4 | %55
 (B>A) x2 | x4 | x4 | x5/2 x3/8 x3/8 x3/8 x3/8 | x4 | x4 | x4 | x4 | x4 | x4 | x2 (F>E) | x4 | x4 | %68
 (B>A) x2 | x4 | x4 | x4 | x4 | x4 | x4 | x4 | x4 | x4 | x4 | x4 | x4 || x4 | x4 | x4 | x4 | x4 | %86
 x4 | x4 | x4 | x4 | x4 | x4 | x4 | x4 | x4 | x5/2 x3/8 x3/8 x3/8 x3/8 | x4 | x4 | x4 | x4 | x4 | %101
 x4 | x2 (d>G) | x4 | x4 || x4 | x4 | x4 | x4 | x4 | x4 || %111
V:5
!p! [Geg]2 .[ce]>.[df] | [eg]2 .[Gc]>.[EG] | .[CFA]>.[DB].[EGc]>.[Gce] | (.[GBf]2 .[Gce]2) | %4
 (!>!d2 g>)d | (!>!c2 g>)c | (!>!B2 g>)B | (!>!A2 g>)A | .G2 .[Gd]2 |!mf! (!>![Bf]2 [ce]>)(d | %10
!<(! [ce]>[FB][Gc]>[Adf])!<)! |!>(! [Gce]2 .[FBd]2 | [Ec]2!>)! z2 |!pp! (!>![Bf]2 [ce]>)(.d | %14
!<(! [ce]>[FB][Gc]>[Adf])!<)! |!>(! [Gce]2 [FBd]2 | [Ec]4!>)! ||!p! z (G, [CE]).[B,F] | %18
 z (G, [CG]2) |!<(! z [CA] z [CG]!<)! | z!>(! ([B,F][CE]).[EG]!>)! |!<(! z [CA] z [CG]!<)! | %22
!>(! z ([B,F][CE])!>)!.[EG] |!>(! (A3 B) | (G3 A) | z!>)! [C^F] z [B,G] | z [A,D] [A,DA]2 | %27
 [A,D] z [A,DA]2 | z [DAc] z [DA] | ([DB][C^F][B,G][EAc]) |!>(! z [DGB] z [C^FA] | %31
 [B,G]2!>)! [A,A]2 | [G,B,D]2 [A,C^F]2 | z ([G,B,D][B,DG][G,B,D]) | z [G,B,D] z [G,B,D] | %35
 z [G,B,D] z [G,B,D] | z [G,B,D] z [G,B,D] | z ([G,B,D][B,DG][G,B,D]) | z [B,D] z [G,B,D] | %39
"_cresc." z [G,CG] z [A,DF] |!>(! z [CE] z [B,D]!>)! |!pp! z [G,CG] z [A,DF] | z ([CE] [B,D]2) | %43
!f! z ([CG] [Gc]2) |!>(! z ([CF] [Fc]2) | z ([CE] [Ec]2)!>)! | z [B,D]!f! z [B,DG] | %47
!pp! z ([CG] [Gc]2) | z ([CF] [Fc]2) | z ([CE] [Ec]2) | z [B,D] z [B,DG] | (G2 E)C | (A>GF>E | %53
!<(! F2) F2!<)! |!mf! (F2 ^F2 | G>"_dim."FE>D) |!p! [CE]2 [B,F]2 | %57
 (([CG]2 .[Cc])) !fermata!z/ [DF]/ | (.[CE]2 .[B,D]2) | z (G,[CE]).[B,F] | z ([CG] [Gc]2) | %61
 z ([CF] [Fc]2) | z ([CE] [Ec]2) | z [B,D] z [B,DG] |"_cresc." (G2 E)C | (A>GF>E | F2) F2 | %67
!mf! F2 ^F2 | G>"_dim."=FE>D |!p! [CE]2 [B,F]2 | (([CG]2 .[Cc])) !fermata!z/ [DF]/ | %71
 (.[CE]2 .[B,D]2) | z [G,C][CE][G,C] | z [CEG] z [CEG] |!<(! z [B,FG] z [B,FG] | %75
 z [CEG]!<)! z!>(! [CEG] | z [B,FG] z!>)! [B,DG] | z [CF] z [FA] | z [CG] z [CF] | z [CE] z [B,D] | %80
 C4 ||!p! z [G,CE] [CEG]2 | z [G,D] [DG]2 | z [C^Fc] z [DGB] | ([GB]2 [^FA]2) | %85
!f!!<(! ([^FA]>[GB]) ([DF]>[EG]) | z [D^FA]!<)! z [DGB] |!>(! z [D^Fc] z [DGB]!>)! | %88
 z ([^FA][DF])[EG] |!pp! ([^FA]>[GB]) ([DF]>[EG]) |!<(! z [D^FA] z [DGB]!<)! | %91
!>(! z [D^Fc] z [DGB]!>)! | z ([^FA][DF])[A,D] |!mf! (A>G^F>E | [B,D]2) ([B,DG]2 | %95
 [A,EA]2 [A,D^F]2) |!pp! z [B,DG] z [B,DG] | z [DA] z [DB] | z [D^Fc] z [DGB] | z [DA] z [G,^CG] | %100
 z [A,D^F] z [G,^CG] | z [A,D^F] z [^F,A,E] | [G,B,D]2!f! [G,DG]2 | [A,EA]2 [A,CD^F]2 | [B,DG]4 || %105
!p! z [CEG] z [CEG] | z [CEG] z [CEG] | z [CF] z [FA] | z [CG] z [CF] | z [CE] z [B,D] | %110
 z [G,C][CE]"^"[G,C] || %111
V:6
 [C,C]2 z2 | C2 C2 | .F,2 .E,2 | .D,2 .C,2 |"^ten." !tenuto![B,,B,]2 z2 | %5
"^ten." !tenuto![A,,A,]2 z2 |"^ten." !tenuto![G,,G,]2 z2 |"^ten." !tenuto![F,,F,]2 z2 | %8
 .[E,,E,]2 .[B,,G,]2 | [D,G,]2 z2 | G,2 x2 | G,2 G,,2 | C,2 z2 | [D,G,]2 z2 | G,2 x2 | G,2 G,,2 | %16
 C,4 || (C,3 .D,) | E,2 z (.E, | .F,2 .E,2 | D,2 C,2) | (.F,2 .E,2 | D,2 C,2) | (C,>B,, A,,2) | %24
 (B,,>A,, G,,2) | (.A,,2 .G,,2 |"^ten." ^F,,2) z2 |"^ten." ^F,,2 z2 | (^F,,2 ^F,2) | (G,D,E,C,) | %30
 (D,2 D,,2) | [G,,D,]2 [C,E,]2 |"^rit." D,4 | G,,4 |"_ben cantando" (G,2 F,>E, | D,>E,F,>E, | %36
 D,>C,B,,>A,, | G,,4) | (G,2 F,2 | E,2 F,2) | (G,2 F,2 | E,2"^col canto" F,2) | (G,3 F,) | %43
"^ten." E,2 z2 |"^ten." D,2 z2 |"^ten." !tenuto!C,2 z2 | .G,2 .G,,2 |"^ten." !tenuto!E,2 z2 | %48
"^ten." !tenuto!D,2 z2 |"^ten." !tenuto!C,2 z2 | (G,2 F,2) | [E,G,]2 z [E,G,] | F,2 z (^C, | %53
 D,>=C,B,,>A,,) | (B,,2 A,,2 | G,,2) z2 | [C,G,]2 [D,F,]2 | ((E,2 .[E,G,])) !fermata!z/ [F,A,]/ | %58
 (.G,2 .[G,,F,]2) | [C,E,]3 .D, |"^ten." !tenuto!E,2 z2 |"^ten." D,2 z2 |"^ten." C,2 z2 | %63
 G,,2 G,2 | [E,G,]2 z [E,G,] | F,2 z ^C, | D,>=C,B,,>A,, | (B,,2 A,,2 | G,,2) z2 | %69
 [C,G,]2 [D,F,]2 | ((E,2 .[E,G,])) !fermata!z/ [F,A,]/ | (.G,2 .[G,,F,]2) | [C,E,]4 | %73
"_ben cantando" (C,2 B,,>.C, | D,2 G,,>D, | E,>F,G,>E, | D,2 G,,) (G, | A,>B,C>F, | E,>C,F,>A, | %79
 G,4 | E,4) || C,4 | B,,4 | A,,2 G,,2 | D,4 | D,2 z2 | (D,2 B,,2 | A,,2 G,,2) | D,4 | D,2 z2 | %90
 (D,2 B,,2 | A,,2 G,,2) | D,4 | (F,4 | [B,,G,]3) (B,, | C,2"^col canto" D,2 | G,,2) G,2 | %97
 ^F,2 G,2 | A,2 G,2 | ^F,2 E,2 | D,2 E,2 |"^riten." D,2 =C,2 | B,,2 [B,,,B,,]2 | %103
"^rall." [C,,C,]2 [D,,D,]2 | G,,4 || (G,2 E,>=F, | G,2 C,>G, | A,>B,C>F, | E,>C,F,>A, | G,4 | %110
 E,4) || %111
V:7
 x4 | .C,>.D,.E,>.C, | x4 | x4 | x4 | x4 | x4 | x4 | x4 | x4 | (C,>D,E,>F,) | x4 | x4 | x4 | %14
 (C,>D,E,>F,) | x4 | x4 || x4 | x4 | x4 | x4 | x4 | x4 | x4 | x4 | x4 | x4 | x4 | x4 | x4 | x4 | %31
 x4 | x4 | x4 | x4 | x4 | x4 | x4 | x4 | x4 | x4 | x4 | x4 | x4 | x4 | x4 | x4 | x4 | x4 | x4 | %50
 x4 | x4 | x4 | x4 | x4 | x4 | x4 | x4 | x4 | x4 | x4 | x4 | x4 | x4 | x4 | x4 | x4 | x4 | x4 | %69
 x4 | x4 | x4 | x4 | x4 | x4 | x4 | x4 | x4 | x4 | G,2 G,,2 | C,4 || x4 | x4 | x4 | x4 | x4 | x4 | %87
 x4 | x4 | x4 | x4 | x4 | x4 | D,3 C, | x4 | x4 | x4 | x4 | x4 | x4 | x4 | x4 | x4 | x4 | x4 || %105
 x4 | x4 | x4 | x4 | G,2 G,,2 | C,4 || %111
V:8
 x4 | x4 | x4 | x4 | G2 z2 | G2 z2 | G2 z2 | G2 z2 | x4 | x4 | x4 | x4 | x4 | x4 | x4 | x4 | x4 || %17
 x4 | x4 | x4 | z G,2 C | x4 | z G,2 .C | [CE]4 | [B,D]4 | x4 | x4 | x4 | x4 | x4 | x4 | x4 | x4 | %33
 x4 | x4 | x4 | x4 | x4 | x4 | x4 | x4 | x4 | x4 | x4 | x4 | x4 | x4 | x4 | x4 | x4 | x4 | C2 z2 | %52
 A,4 | A,2 D2 | D2 C2 | B,2 z2 | x4 | x4 | x4 | x4 | x4 | x4 | x4 | x4 | C2 z2 | A,4 | A,2 D2 | %67
 D2 C2 | B,2 z2 | x4 | x4 | x4 | x4 | x4 | x4 | x4 | x4 | x4 | x4 | x4 | x4 || x4 | x4 | x4 | D4 | %85
 x4 | x4 | x4 | x4 | x4 | x4 | x4 | x4 | A,4 | x4 | x4 | x4 | x4 | x4 | x4 | x4 | x4 | x4 | x4 | %104
 x4 || x4 | x4 | x4 | x4 | x4 | x4 || %111

